src/img/spt-basico.svg

<svg width="471" height="334" viewBox="0 0 471 334" fill="none" xmlns="http://www.w3.org/2000/svg">
<path d="M270.942 136.471C270.942 210.737 210.737 270.942 136.471 270.942C62.2048 270.942 2 210.737 2 136.471C2 62.2048 62.2048 2 136.471 2C210.737 2 270.942 62.2048 270.942 136.471Z" stroke="#A6727C" stroke-width="4"/>
<circle cx="334.489" cy="136.471" r="134.471" stroke="#A6727C" stroke-width="4"/>
<rect x="2" y="284" width="467" height="47" rx="23.5" stroke="#A6727C" stroke-width="4"/>
<path d="M39.1284 131.06C38.1084 130.5 37.0884 130.22 36.0484 130.22C33.7084 130.22 32.4684 131.88 32.4684 134.54C32.6484 136.42 33.6284 137.06 35.9684 137.18C37.0084 137.18 38.0684 137.32 39.0884 136.76L39.1284 139.58C38.1284 140.04 37.0684 140.28 35.8484 140.28C32.5684 140.28 30.4684 138.06 30.4684 134.54C30.4684 130.98 32.5684 128.8 35.9684 128.8C37.0684 128.8 38.1484 129.02 39.1284 129.48V131.06ZM46.3868 128.8C49.5068 128.8 51.4068 130.94 51.4068 134.54C51.4068 138.12 49.5068 140.28 46.3868 140.28C43.2468 140.28 41.3668 138.12 41.3668 134.54C41.3668 130.94 43.2468 128.8 46.3868 128.8ZM46.3868 130.12C44.4668 130.12 43.2668 131.68 43.2668 134.22C43.2668 136.78 44.4468 137.18 46.3868 137.18C48.3068 137.18 49.5068 136.76 49.5068 134.22C49.5068 131.72 48.3068 130.12 46.3868 130.12ZM64.1756 140H61.6156L61.9956 133.36C61.9956 131.28 61.3756 130.26 59.7756 130.26C57.5756 130.26 56.5356 131.58 56.5356 133.72L56.8356 140H54.3356L54.6356 128.96H56.4356V130.28C57.2956 129.6 58.4556 128.8 59.9756 128.8C62.4756 128.8 63.7556 130.38 63.8956 133.4L64.1756 140ZM77.149 134.08H68.989C69.029 137 70.469 137.5 72.849 137.62C74.229 137.62 75.529 137.64 76.809 136.96L76.849 139.44C75.549 140 74.189 140.28 72.789 140.28C69.309 140.16 67.109 138.1 67.109 134.64C67.249 131.06 69.189 128.8 72.489 128.8C75.409 128.92 76.909 130.28 77.149 133.4V134.08ZM75.589 132.5C75.389 131.28 74.269 129.74 72.489 129.74C70.489 129.74 69.189 131.2 69.189 132.52L75.589 132.5ZM84.5812 133.54L87.8812 129.06H89.7012L85.8412 134.88L90.1012 140H87.2012L84.7012 136.2L82.0012 140H79.1012L83.4612 134.76L79.6612 129.06H81.5812L84.5812 133.54ZM97.347 123.14C97.047 122.88 96.847 122.76 96.667 122.76C96.427 122.76 96.247 122.88 96.127 123.12C96.007 123.36 95.947 123.74 95.927 124.28H94.707C94.747 122.52 95.427 121.52 96.607 121.52C97.107 121.52 97.487 121.68 97.967 122.12L98.527 122.66C98.807 122.92 99.027 123.04 99.187 123.04C99.447 123.04 99.627 122.92 99.747 122.68C99.867 122.44 99.927 122.06 99.927 121.52H101.167C101.127 123.28 100.427 124.28 99.247 124.28C98.747 124.28 98.367 124.12 97.887 123.68L97.347 123.14ZM101.007 129.06H102.547L102.507 140H101.007V138.36C100.247 139.66 99.107 140.28 97.507 140.28C94.867 140.28 93.027 137.98 93.027 134.54C93.027 131.1 94.867 128.8 97.507 128.8C99.107 128.8 100.247 129.42 101.007 130.72V129.06ZM94.327 134.34C94.627 136.26 95.427 137.02 97.327 137.02C99.227 137.02 99.827 136.62 100.067 134.2C100.127 131.56 99.287 130.1 97.367 130.1C95.467 130.1 94.327 131.7 94.327 134.34ZM110.215 128.8C113.335 128.8 115.235 130.94 115.235 134.54C115.235 138.12 113.335 140.28 110.215 140.28C107.075 140.28 105.195 138.12 105.195 134.54C105.195 130.94 107.075 128.8 110.215 128.8ZM110.215 130.12C108.295 130.12 107.095 131.68 107.095 134.22C107.095 136.78 108.275 137.18 110.215 137.18C112.135 137.18 113.335 136.76 113.335 134.22C113.335 131.72 112.135 130.12 110.215 130.12Z" fill="#734C56"/>
<path d="M320.343 131.06C319.323 130.5 318.303 130.22 317.263 130.22C314.923 130.22 313.683 131.88 313.683 134.54C313.863 136.42 314.843 137.06 317.183 137.18C318.223 137.18 319.283 137.32 320.303 136.76L320.343 139.58C319.343 140.04 318.283 140.28 317.063 140.28C313.783 140.28 311.683 138.06 311.683 134.54C311.683 130.98 313.783 128.8 317.183 128.8C318.283 128.8 319.363 129.02 320.343 129.48V131.06ZM329.905 130.94C329.505 130.7 329.125 130.7 328.545 130.7C326.525 130.7 325.685 132.18 325.685 134.54L326.085 140H323.265C324.085 135.48 324.185 133.84 324.025 129.16H325.685V130.28C326.045 130 327.345 129 329.085 129C329.325 129 329.525 129.02 329.885 129.1L329.905 130.94ZM341.489 134.08H333.329C333.369 137 334.809 137.5 337.189 137.62C338.569 137.62 339.869 137.64 341.149 136.96L341.189 139.44C339.889 140 338.529 140.28 337.129 140.28C333.649 140.16 331.449 138.1 331.449 134.64C331.589 131.06 333.529 128.8 336.829 128.8C339.749 128.92 341.249 130.28 341.489 133.4V134.08ZM339.929 132.5C339.729 131.28 338.609 129.74 336.829 129.74C334.829 129.74 333.529 131.2 333.529 132.52L339.929 132.5ZM352.198 130.88C351.178 130.38 350.078 130.1 348.918 130.1C347.118 130.1 346.138 130.76 346.138 131.84C346.138 132.82 346.718 133.28 348.638 133.7L349.258 133.84C351.798 134.38 352.778 135.2 352.778 136.98C352.778 139.02 351.078 140.28 348.258 140.28C347.098 140.28 345.838 140.06 344.418 139.6V136.96C345.758 137.66 347.038 138 348.298 138C349.998 138 350.738 137.48 350.738 136.54C350.518 136.14 350.338 135.86 350.178 135.68C350.038 135.5 349.398 135.3 348.278 135.04L347.658 134.9C345.438 134.44 344.498 133.72 344.498 132.02C344.498 129.96 346.018 128.8 348.698 128.8C350.038 128.8 351.218 129 352.198 129.38V130.88ZM364.367 131.06C363.347 130.5 362.327 130.22 361.287 130.22C358.947 130.22 357.707 131.88 357.707 134.54C357.887 136.42 358.867 137.06 361.207 137.18C362.247 137.18 363.307 137.32 364.327 136.76L364.367 139.58C363.367 140.04 362.307 140.28 361.087 140.28C357.807 140.28 355.707 138.06 355.707 134.54C355.707 130.98 357.807 128.8 361.207 128.8C362.307 128.8 363.387 129.02 364.367 129.48V131.06ZM369.289 127.08H367.489L367.589 124.8H369.189L369.289 127.08ZM367.289 140C367.549 136.16 367.609 132.5 367.589 129.06H369.189C369.069 132.34 369.169 136.02 369.589 140H367.289ZM381.584 131.16C382.484 129.56 383.524 128.8 385.204 128.8C387.484 128.8 388.764 130.46 388.764 133.4L388.964 140H386.284L386.964 133.16C386.964 131.06 386.524 130.06 385.004 130.06C383.124 130.06 382.184 131.68 382.084 133.82L381.784 140H379.304L380.184 133.06C380.184 130.96 379.444 129.98 377.904 129.98C376.064 129.98 374.804 131.7 374.804 133.82L375.004 140H372.504L373.004 129.06H374.804L374.604 130.76C375.424 129.42 376.544 128.8 378.124 128.8C379.724 128.8 381.044 129.62 381.584 131.16ZM401.919 134.08H393.759C393.799 137 395.239 137.5 397.619 137.62C398.999 137.62 400.299 137.64 401.579 136.96L401.619 139.44C400.319 140 398.959 140.28 397.559 140.28C394.079 140.16 391.879 138.1 391.879 134.64C392.019 131.06 393.959 128.8 397.259 128.8C400.179 128.92 401.679 130.28 401.919 133.4V134.08ZM400.359 132.5C400.159 131.28 399.039 129.74 397.259 129.74C395.259 129.74 393.959 131.2 393.959 132.52L400.359 132.5ZM413.945 140H411.385L411.765 133.36C411.765 131.28 411.145 130.26 409.545 130.26C407.345 130.26 406.305 131.58 406.305 133.72L406.605 140H404.105L404.405 128.96H406.205V130.28C407.065 129.6 408.225 128.8 409.745 128.8C412.245 128.8 413.525 130.38 413.665 133.4L413.945 140ZM417.613 129.06L417.713 126.34H419.613L419.513 129.06H422.053V130.46H419.513L419.413 135.22C419.413 137.02 419.793 137.32 421.273 137.32H423.133V140H421.273C418.513 140 417.513 139.14 417.513 136.4L417.613 130.46H416.293V129.06H417.613ZM431.078 128.8C434.198 128.8 436.098 130.94 436.098 134.54C436.098 138.12 434.198 140.28 431.078 140.28C427.938 140.28 426.058 138.12 426.058 134.54C426.058 130.94 427.938 128.8 431.078 128.8ZM431.078 130.12C429.158 130.12 427.958 131.68 427.958 134.22C427.958 136.78 429.138 137.18 431.078 137.18C432.998 137.18 434.198 136.76 434.198 134.22C434.198 131.72 432.998 130.12 431.078 130.12Z" fill="#734C56"/>
<path d="M155.693 300.888H157.493L157.293 316.088H155.493V314.448C154.753 315.748 153.593 316.368 151.993 316.368C149.353 316.368 147.513 314.068 147.513 310.628C147.513 307.188 149.353 304.888 151.993 304.888C153.593 304.888 154.753 305.508 155.493 306.808L155.693 300.888ZM148.813 310.428C149.113 312.328 149.913 313.108 151.813 313.108C153.713 313.108 154.633 312.708 154.693 310.288C154.633 307.648 153.773 306.188 151.873 306.188C149.953 306.188 148.813 307.788 148.813 310.428ZM170.444 310.168H162.284C162.324 313.088 163.764 313.588 166.144 313.708C167.524 313.708 168.824 313.728 170.104 313.048L170.144 315.528C168.844 316.088 167.484 316.368 166.084 316.368C162.604 316.248 160.404 314.188 160.404 310.728C160.544 307.148 162.484 304.888 165.784 304.888C168.704 305.008 170.204 306.368 170.444 309.488V310.168ZM168.884 308.588C168.684 307.368 167.564 305.828 165.784 305.828C163.784 305.828 162.484 307.288 162.484 308.608L168.884 308.588ZM181.152 306.968C180.132 306.468 179.032 306.188 177.872 306.188C176.072 306.188 175.092 306.848 175.092 307.928C175.092 308.908 175.672 309.368 177.592 309.788L178.212 309.928C180.752 310.468 181.732 311.288 181.732 313.068C181.732 315.108 180.032 316.368 177.212 316.368C176.052 316.368 174.792 316.148 173.372 315.688V313.048C174.712 313.748 175.992 314.088 177.252 314.088C178.952 314.088 179.692 313.568 179.692 312.628C179.472 312.228 179.292 311.948 179.132 311.768C178.992 311.588 178.352 311.388 177.232 311.128L176.612 310.988C174.392 310.528 173.452 309.808 173.452 308.108C173.452 306.048 174.972 304.888 177.652 304.888C178.992 304.888 180.172 305.088 181.152 305.468V306.968ZM194.701 310.168H186.541C186.581 313.088 188.021 313.588 190.401 313.708C191.781 313.708 193.081 313.728 194.361 313.048L194.401 315.528C193.101 316.088 191.741 316.368 190.341 316.368C186.861 316.248 184.661 314.188 184.661 310.728C184.801 307.148 186.741 304.888 190.041 304.888C192.961 305.008 194.461 306.368 194.701 309.488V310.168ZM193.141 308.588C192.941 307.368 191.821 305.828 190.041 305.828C188.041 305.828 186.741 307.288 186.741 308.608L193.141 308.588ZM206.728 316.088H204.168L204.548 309.448C204.548 307.368 203.928 306.348 202.328 306.348C200.128 306.348 199.088 307.668 199.088 309.808L199.388 316.088H196.888L197.188 305.048H198.988V306.368C199.848 305.688 201.008 304.888 202.528 304.888C205.028 304.888 206.308 306.468 206.448 309.488L206.728 316.088ZM215.325 316.088H212.685L208.685 305.148H210.585L214.005 313.168L217.425 305.148H219.325L215.325 316.088ZM226.302 304.888C229.422 304.888 231.322 307.028 231.322 310.628C231.322 314.208 229.422 316.368 226.302 316.368C223.162 316.368 221.282 314.208 221.282 310.628C221.282 307.028 223.162 304.888 226.302 304.888ZM226.302 306.208C224.382 306.208 223.182 307.768 223.182 310.308C223.182 312.868 224.362 313.268 226.302 313.268C228.222 313.268 229.422 312.848 229.422 310.308C229.422 307.808 228.222 306.208 226.302 306.208ZM238.171 316.088H234.251C234.331 311.028 234.471 306.848 234.751 301.768H236.451C236.211 306.088 236.091 309.528 236.051 313.868H238.171V316.088ZM247.727 316.088H245.087L241.087 305.148H242.987L246.407 313.168L249.827 305.148H251.727L247.727 316.088ZM256.661 303.168H254.861L254.961 300.888H256.561L256.661 303.168ZM254.661 316.088C254.921 312.248 254.981 308.588 254.961 305.148H256.561C256.441 308.428 256.541 312.108 256.961 316.088H254.661ZM268.956 307.248C269.856 305.648 270.896 304.888 272.576 304.888C274.856 304.888 276.136 306.548 276.136 309.488L276.336 316.088H273.656L274.336 309.248C274.336 307.148 273.896 306.148 272.376 306.148C270.496 306.148 269.556 307.768 269.456 309.908L269.156 316.088H266.676L267.556 309.148C267.556 307.048 266.816 306.068 265.276 306.068C263.436 306.068 262.176 307.788 262.176 309.908L262.376 316.088H259.876L260.376 305.148H262.176L261.976 306.848C262.796 305.508 263.916 304.888 265.496 304.888C267.096 304.888 268.416 305.708 268.956 307.248ZM289.291 310.168H281.131C281.171 313.088 282.611 313.588 284.991 313.708C286.371 313.708 287.671 313.728 288.951 313.048L288.991 315.528C287.691 316.088 286.331 316.368 284.931 316.368C281.451 316.248 279.251 314.188 279.251 310.728C279.391 307.148 281.331 304.888 284.631 304.888C287.551 305.008 289.051 306.368 289.291 309.488V310.168ZM287.731 308.588C287.531 307.368 286.411 305.828 284.631 305.828C282.631 305.828 281.331 307.288 281.331 308.608L287.731 308.588ZM301.318 316.088H298.758L299.138 309.448C299.138 307.368 298.518 306.348 296.918 306.348C294.718 306.348 293.678 307.668 293.678 309.808L293.978 316.088H291.478L291.778 305.048H293.578V306.368C294.438 305.688 295.598 304.888 297.118 304.888C299.618 304.888 300.898 306.468 301.038 309.488L301.318 316.088ZM304.985 305.148L305.085 302.428H306.985L306.885 305.148H309.425V306.548H306.885L306.785 311.308C306.785 313.108 307.165 313.408 308.645 313.408H310.505V316.088H308.645C305.885 316.088 304.885 315.228 304.885 312.488L304.985 306.548H303.665V305.148H304.985ZM318.451 304.888C321.571 304.888 323.471 307.028 323.471 310.628C323.471 314.208 321.571 316.368 318.451 316.368C315.311 316.368 313.431 314.208 313.431 310.628C313.431 307.028 315.311 304.888 318.451 304.888ZM318.451 306.208C316.531 306.208 315.331 307.768 315.331 310.308C315.331 312.868 316.511 313.268 318.451 313.268C320.371 313.268 321.571 312.848 321.571 310.308C321.571 307.808 320.371 306.208 318.451 306.208Z" fill="#734C56"/>
</svg>

<svg width="471" height="334" fill="none" xmlns="http://www.w3.org/2000/svg"><path d="M270.942 136.471c0 74.266-60.205 134.471-134.471 134.471S2 210.737 2 136.471 62.205 2 136.471 2s134.471 60.205 134.471 134.471z" stroke="#A6727C" stroke-width="4"/><circle cx="334.489" cy="136.471" r="134.471" stroke="#A6727C" stroke-width="4"/><rect x="2" y="284" width="467" height="47" rx="23.5" stroke="#A6727C" stroke-width="4"/><path d="M39.128 131.06c-1.02-.56-2.04-.84-3.08-.84-2.34 0-3.58 1.66-3.58 4.32.18 1.88 1.16 2.52 3.5 2.64 1.04 0 2.1.14 3.12-.42l.04 2.82c-1 .46-2.06.7-3.28.7-3.28 0-5.38-2.22-5.38-5.74 0-3.56 2.1-5.74 5.5-5.74 1.1 0 2.18.22 3.16.68v1.58zm7.259-2.26c3.12 0 5.02 2.14 5.02 5.74 0 3.58-1.9 5.74-5.02 5.74-3.14 0-5.02-2.16-5.02-5.74 0-3.6 1.88-5.74 5.02-5.74zm0 1.32c-1.92 0-3.12 1.56-3.12 4.1 0 2.56 1.18 2.96 3.12 2.96 1.92 0 3.12-.42 3.12-2.96 0-2.5-1.2-4.1-3.12-4.1zM64.176 140h-2.56l.38-6.64c0-2.08-.62-3.1-2.22-3.1-2.2 0-3.24 1.32-3.24 3.46l.3 6.28h-2.5l.3-11.04h1.8v1.32c.86-.68 2.02-1.48 3.54-1.48 2.5 0 3.78 1.58 3.92 4.6l.28 6.6zm12.973-5.92h-8.16c.04 2.92 1.48 3.42 3.86 3.54 1.38 0 2.68.02 3.96-.66l.04 2.48c-1.3.56-2.66.84-4.06.84-3.48-.12-5.68-2.18-5.68-5.64.14-3.58 2.08-5.84 5.38-5.84 2.92.12 4.42 1.48 4.66 4.6v.68zm-1.56-1.58c-.2-1.22-1.32-2.76-3.1-2.76-2 0-3.3 1.46-3.3 2.78l6.4-.02zm8.992 1.04 3.3-4.48h1.82l-3.86 5.82 4.26 5.12h-2.9l-2.5-3.8-2.7 3.8h-2.9l4.36-5.24-3.8-5.7h1.92l3 4.48zm12.766-10.4c-.3-.26-.5-.38-.68-.38-.24 0-.42.12-.54.36-.12.24-.18.62-.2 1.16h-1.22c.04-1.76.72-2.76 1.9-2.76.5 0 .88.16 1.36.6l.56.54c.28.26.5.38.66.38.26 0 .44-.12.56-.36.12-.24.18-.62.18-1.16h1.24c-.04 1.76-.74 2.76-1.92 2.76-.5 0-.88-.16-1.36-.6l-.54-.54zm3.66 5.92h1.54l-.04 10.94h-1.5v-1.64c-.76 1.3-1.9 1.92-3.5 1.92-2.64 0-4.48-2.3-4.48-5.74 0-3.44 1.84-5.74 4.48-5.74 1.6 0 2.74.62 3.5 1.92v-1.66zm-6.68 5.28c.3 1.92 1.1 2.68 3 2.68s2.5-.4 2.74-2.82c.06-2.64-.78-4.1-2.7-4.1-1.9 0-3.04 1.6-3.04 4.24zm15.888-5.54c3.12 0 5.02 2.14 5.02 5.74 0 3.58-1.9 5.74-5.02 5.74-3.14 0-5.02-2.16-5.02-5.74 0-3.6 1.88-5.74 5.02-5.74zm0 1.32c-1.92 0-3.12 1.56-3.12 4.1 0 2.56 1.18 2.96 3.12 2.96 1.92 0 3.12-.42 3.12-2.96 0-2.5-1.2-4.1-3.12-4.1zM320.343 131.06c-1.02-.56-2.04-.84-3.08-.84-2.34 0-3.58 1.66-3.58 4.32.18 1.88 1.16 2.52 3.5 2.64 1.04 0 2.1.14 3.12-.42l.04 2.82c-1 .46-2.06.7-3.28.7-3.28 0-5.38-2.22-5.38-5.74 0-3.56 2.1-5.74 5.5-5.74 1.1 0 2.18.22 3.16.68v1.58zm9.562-.12c-.4-.24-.78-.24-1.36-.24-2.02 0-2.86 1.48-2.86 3.84l.4 5.46h-2.82c.82-4.52.92-6.16.76-10.84h1.66v1.12c.36-.28 1.66-1.28 3.4-1.28.24 0 .44.02.8.1l.02 1.84zm11.584 3.14h-8.16c.04 2.92 1.48 3.42 3.86 3.54 1.38 0 2.68.02 3.96-.66l.04 2.48c-1.3.56-2.66.84-4.06.84-3.48-.12-5.68-2.18-5.68-5.64.14-3.58 2.08-5.84 5.38-5.84 2.92.12 4.42 1.48 4.66 4.6v.68zm-1.56-1.58c-.2-1.22-1.32-2.76-3.1-2.76-2 0-3.3 1.46-3.3 2.78l6.4-.02zm12.269-1.62a7.4 7.4 0 0 0-3.28-.78c-1.8 0-2.78.66-2.78 1.74 0 .98.58 1.44 2.5 1.86l.62.14c2.54.54 3.52 1.36 3.52 3.14 0 2.04-1.7 3.3-4.52 3.3-1.16 0-2.42-.22-3.84-.68v-2.64c1.34.7 2.62 1.04 3.88 1.04 1.7 0 2.44-.52 2.44-1.46-.22-.4-.4-.68-.56-.86-.14-.18-.78-.38-1.9-.64l-.62-.14c-2.22-.46-3.16-1.18-3.16-2.88 0-2.06 1.52-3.22 4.2-3.22 1.34 0 2.52.2 3.5.58v1.5zm12.169.18c-1.02-.56-2.04-.84-3.08-.84-2.34 0-3.58 1.66-3.58 4.32.18 1.88 1.16 2.52 3.5 2.64 1.04 0 2.1.14 3.12-.42l.04 2.82c-1 .46-2.06.7-3.28.7-3.28 0-5.38-2.22-5.38-5.74 0-3.56 2.1-5.74 5.5-5.74 1.1 0 2.18.22 3.16.68v1.58zm4.922-3.98h-1.8l.1-2.28h1.6l.1 2.28zm-2 12.92c.26-3.84.32-7.5.3-10.94h1.6c-.12 3.28-.02 6.96.4 10.94h-2.3zm14.295-8.84c.9-1.6 1.94-2.36 3.62-2.36 2.28 0 3.56 1.66 3.56 4.6l.2 6.6h-2.68l.68-6.84c0-2.1-.44-3.1-1.96-3.1-1.88 0-2.82 1.62-2.92 3.76l-.3 6.18h-2.48l.88-6.94c0-2.1-.74-3.08-2.28-3.08-1.84 0-3.1 1.72-3.1 3.84l.2 6.18h-2.5l.5-10.94h1.8l-.2 1.7c.82-1.34 1.94-1.96 3.52-1.96 1.6 0 2.92.82 3.46 2.36zm20.335 2.92h-8.16c.04 2.92 1.48 3.42 3.86 3.54 1.38 0 2.68.02 3.96-.66l.04 2.48c-1.3.56-2.66.84-4.06.84-3.48-.12-5.68-2.18-5.68-5.64.14-3.58 2.08-5.84 5.38-5.84 2.92.12 4.42 1.48 4.66 4.6v.68zm-1.56-1.58c-.2-1.22-1.32-2.76-3.1-2.76-2 0-3.3 1.46-3.3 2.78l6.4-.02zm13.586 7.5h-2.56l.38-6.64c0-2.08-.62-3.1-2.22-3.1-2.2 0-3.24 1.32-3.24 3.46l.3 6.28h-2.5l.3-11.04h1.8v1.32c.86-.68 2.02-1.48 3.54-1.48 2.5 0 3.78 1.58 3.92 4.6l.28 6.6zm3.668-10.94.1-2.72h1.9l-.1 2.72h2.54v1.4h-2.54l-.1 4.76c0 1.8.38 2.1 1.86 2.1h1.86V140h-1.86c-2.76 0-3.76-.86-3.76-3.6l.1-5.94h-1.32v-1.4h1.32zm13.465-.26c3.12 0 5.02 2.14 5.02 5.74 0 3.58-1.9 5.74-5.02 5.74-3.14 0-5.02-2.16-5.02-5.74 0-3.6 1.88-5.74 5.02-5.74zm0 1.32c-1.92 0-3.12 1.56-3.12 4.1 0 2.56 1.18 2.96 3.12 2.96 1.92 0 3.12-.42 3.12-2.96 0-2.5-1.2-4.1-3.12-4.1zM155.693 300.888h1.8l-.2 15.2h-1.8v-1.64c-.74 1.3-1.9 1.92-3.5 1.92-2.64 0-4.48-2.3-4.48-5.74 0-3.44 1.84-5.74 4.48-5.74 1.6 0 2.76.62 3.5 1.92l.2-5.92zm-6.88 9.54c.3 1.9 1.1 2.68 3 2.68s2.82-.4 2.88-2.82c-.06-2.64-.92-4.1-2.82-4.1-1.92 0-3.06 1.6-3.06 4.24zm21.631-.26h-8.16c.04 2.92 1.48 3.42 3.86 3.54 1.38 0 2.68.02 3.96-.66l.04 2.48c-1.3.56-2.66.84-4.06.84-3.48-.12-5.68-2.18-5.68-5.64.14-3.58 2.08-5.84 5.38-5.84 2.92.12 4.42 1.48 4.66 4.6v.68zm-1.56-1.58c-.2-1.22-1.32-2.76-3.1-2.76-2 0-3.3 1.46-3.3 2.78l6.4-.02zm12.268-1.62a7.4 7.4 0 0 0-3.28-.78c-1.8 0-2.78.66-2.78 1.74 0 .98.58 1.44 2.5 1.86l.62.14c2.54.54 3.52 1.36 3.52 3.14 0 2.04-1.7 3.3-4.52 3.3-1.16 0-2.42-.22-3.84-.68v-2.64c1.34.7 2.62 1.04 3.88 1.04 1.7 0 2.44-.52 2.44-1.46-.22-.4-.4-.68-.56-.86-.14-.18-.78-.38-1.9-.64l-.62-.14c-2.22-.46-3.16-1.18-3.16-2.88 0-2.06 1.52-3.22 4.2-3.22 1.34 0 2.52.2 3.5.58v1.5zm13.549 3.2h-8.16c.04 2.92 1.48 3.42 3.86 3.54 1.38 0 2.68.02 3.96-.66l.04 2.48c-1.3.56-2.66.84-4.06.84-3.48-.12-5.68-2.18-5.68-5.64.14-3.58 2.08-5.84 5.38-5.84 2.92.12 4.42 1.48 4.66 4.6v.68zm-1.56-1.58c-.2-1.22-1.32-2.76-3.1-2.76-2 0-3.3 1.46-3.3 2.78l6.4-.02zm13.587 7.5h-2.56l.38-6.64c0-2.08-.62-3.1-2.22-3.1-2.2 0-3.24 1.32-3.24 3.46l.3 6.28h-2.5l.3-11.04h1.8v1.32c.86-.68 2.02-1.48 3.54-1.48 2.5 0 3.78 1.58 3.92 4.6l.28 6.6zm8.597 0h-2.64l-4-10.94h1.9l3.42 8.02 3.42-8.02h1.9l-4 10.94zm10.977-11.2c3.12 0 5.02 2.14 5.02 5.74 0 3.58-1.9 5.74-5.02 5.74-3.14 0-5.02-2.16-5.02-5.74 0-3.6 1.88-5.74 5.02-5.74zm0 1.32c-1.92 0-3.12 1.56-3.12 4.1 0 2.56 1.18 2.96 3.12 2.96 1.92 0 3.12-.42 3.12-2.96 0-2.5-1.2-4.1-3.12-4.1zm11.869 9.88h-3.92c.08-5.06.22-9.24.5-14.32h1.7c-.24 4.32-.36 7.76-.4 12.1h2.12v2.22zm9.556 0h-2.64l-4-10.94h1.9l3.42 8.02 3.42-8.02h1.9l-4 10.94zm8.934-12.92h-1.8l.1-2.28h1.6l.1 2.28zm-2 12.92c.26-3.84.32-7.5.3-10.94h1.6c-.12 3.28-.02 6.96.4 10.94h-2.3zm14.295-8.84c.9-1.6 1.94-2.36 3.62-2.36 2.28 0 3.56 1.66 3.56 4.6l.2 6.6h-2.68l.68-6.84c0-2.1-.44-3.1-1.96-3.1-1.88 0-2.82 1.62-2.92 3.76l-.3 6.18h-2.48l.88-6.94c0-2.1-.74-3.08-2.28-3.08-1.84 0-3.1 1.72-3.1 3.84l.2 6.18h-2.5l.5-10.94h1.8l-.2 1.7c.82-1.34 1.94-1.96 3.52-1.96 1.6 0 2.92.82 3.46 2.36zm20.335 2.92h-8.16c.04 2.92 1.48 3.42 3.86 3.54 1.38 0 2.68.02 3.96-.66l.04 2.48c-1.3.56-2.66.84-4.06.84-3.48-.12-5.68-2.18-5.68-5.64.14-3.58 2.08-5.84 5.38-5.84 2.92.12 4.42 1.48 4.66 4.6v.68zm-1.56-1.58c-.2-1.22-1.32-2.76-3.1-2.76-2 0-3.3 1.46-3.3 2.78l6.4-.02zm13.587 7.5h-2.56l.38-6.64c0-2.08-.62-3.1-2.22-3.1-2.2 0-3.24 1.32-3.24 3.46l.3 6.28h-2.5l.3-11.04h1.8v1.32c.86-.68 2.02-1.48 3.54-1.48 2.5 0 3.78 1.58 3.92 4.6l.28 6.6zm3.667-10.94.1-2.72h1.9l-.1 2.72h2.54v1.4h-2.54l-.1 4.76c0 1.8.38 2.1 1.86 2.1h1.86v2.68h-1.86c-2.76 0-3.76-.86-3.76-3.6l.1-5.94h-1.32v-1.4h1.32zm13.466-.26c3.12 0 5.02 2.14 5.02 5.74 0 3.58-1.9 5.74-5.02 5.74-3.14 0-5.02-2.16-5.02-5.74 0-3.6 1.88-5.74 5.02-5.74zm0 1.32c-1.92 0-3.12 1.56-3.12 4.1 0 2.56 1.18 2.96 3.12 2.96 1.92 0 3.12-.42 3.12-2.96 0-2.5-1.2-4.1-3.12-4.1z" fill="#734C56"/></svg>
